static/characters/naitoapple/front-walking-2.svg

<svg xmlns="http://www.w3.org/2000/svg" xmlns:xlink="http://www.w3.org/1999/xlink" height="186" width="160"><defs><use height="2.2" width="5" xlink:href="#a" id="e"/><use height="15.95" width="16" xlink:href="#b" id="f"/><g id="d"><path d="M-15.5-41.55q-2.65-3.1-2.5-7.1v-.75q.25-4.9 5.35-9.05Q-7.15-63.5.5-64q7.6.5 13.05 5.55Q18.6-54.3 19-49.4v.75q0 4-2.6 7.1h.1-.05l-1.1 1.3v.15l-1 .9 6.55 2.35.05-.1.8.1h.95l.4.3.55.55.25.35.25 1.5-.2.45q-.35 1.55-1.4 1.65l-2.1.1-1.15-.9v-.05h-.05l.05-.15-4.95-1.8v-.05l-1.3-.5.05.55-.3.9.35.1v.05l-.15-.05-.25 8.85h-.05l-.05 1.5h.05v.1l-.05.4h-.05l-.35 4.2-1.05 4.1-1.65 4v.05H8.4v5.2Q8.35-4.1 7.6-3.2q-.65.75-1.7.75-1 0-1.7-.75-.8-.9-.8-2.25v-5.2H2.1v-1.2h-.3V-12l-.45-.75 1.25-.3.65-.5q.9-.9.9-2.75 0-1.9-.9-2.8-.8-.8-2.05-.8h-6.6v1.55h6.55q.7 0 1.15.4.55.55.55 1.65 0 1.05-.55 1.6-.45.45-1.15.45H-5.4v1.4h-4.75l-2.15-.65q-1.55-1.75-1.85-3.75l-.1-1.2V-19l.05-.4.55-1.85h.1v-.55l.15-.15v-1.35l.15-2.4v-.05l.5-7.75h-.05l-1.45-.45-.45-1.3-6.1 2.2.05.15h-.05v.05l-1.1.9-2.1-.1q-1.1-.1-1.45-1.65l-.15-.45.25-1.5.2-.35.6-.55.35-.3h1l.75-.1.05.1 9.05-3.25-.25-.8-1.35.35-.75-1h.2m1.75 19.65l-.05-.1.05.1m3.65-6.6v.05h.05l-.05-.05" fill="#fff" fill-rule="evenodd" transform="translate(27.05 64.6)"/><path d="M15.35-40.1l3.15.95v-.05l2.55.95v-.05l.3.2v.1h.1l1.25-.1q.2.15.3 0 1.55.35 2 1.5l.15.25v.25l.15.3.2.7q.2.9-.15 1.6l-.1.2q-.35 1.9-2 2.4.05.45-.2.1l-2.7.2q-.65-.35-1.65-1.25l-4.15-1.5v.1l-1.4-.55v-.05l-.35-.1.3-.9-.05-.55 1.3.5v.05l4.95 1.8-.05.15h.05v.05l1.15.9 2.1-.1q1.05-.1 1.4-1.65l.2-.45-.25-1.5-.25-.35-.55-.55-.4-.3h-.95l-.8-.1-.05.1-6.55-2.35 1-.9m-5.8 29.45v5.2q0 1.95-1 3.1Q7.45-1.1 5.9-1.1q-1.5 0-2.65-1.25-1.05-1.15-1-3.1v-5.2H3.4v5.2q0 1.35.8 2.25.7.75 1.7.75 1.05 0 1.7-.75.75-.9.8-2.25v-5.2h1.15m-8.2-2.1H-5.4v-1.5h6.55q.7 0 1.15-.45.55-.55.55-1.6 0-1.1-.55-1.65-.45-.4-1.15-.4H-5.4v-1.55h6.6q1.25 0 2.05.8.9.9.9 2.8 0 1.85-.9 2.75l-.65.5-1.25.3m-15.6-21.2l-5.95 2.1-1.6 1.25q-1.6.45-2.7-.2-.3.35-.2-.1-1.7-.5-2-2.4l-.15-.2q-.35-.7-.15-1.6l.25-.7.15-.3v-.25l.1-.25q.45-1.15 2.05-1.5.05.15.3 0l1.2.1h.15l-.05-.1.3-.2.05.05 2.55-.95v.05l1.8-.65 3.2-.75 1.35-.35.25.8-9.05 3.25-.05-.1-.75.1h-1l-.35.3-.6.55-.2.35-.25 1.5.15.45q.35 1.55 1.45 1.65l2.1.1 1.1-.9v-.05h.05l-.05-.15 6.1-2.2.45 1.3" fill-rule="evenodd" transform="translate(27.05 64.6)"/><path d="M11.55 23.05q-2.65-3.1-2.5-7.1v-.75q.25-4.9 5.35-9.05Q19.9 1.1 27.55.6q7.6.5 13.05 5.55 5.05 4.15 5.45 9.05v.75q0 4-2.6 7.1" fill="none" stroke="#000" stroke-linecap="round" stroke-linejoin="round" stroke-width="1.2"/><path d="M5.4-44.05q.15.45.45.75l.7.25.95-.6q.4-.65.4-1.65 0-1.35-.9-3.25h1.05q.9 1.6.9 3.15 0 1.55-.65 2.4-.6.8-1.6.8-1.35 0-1.9-1.4-.6 1.4-1.9 1.4-1.05 0-1.65-.85Q.6-43.9.6-45.4q0-1.55.95-3.15h1q-.85 1.9-.85 3.25 0 1 .35 1.65.4.6.95.6.4 0 .7-.3l.45-.7.1-1.15V-47H5.3v1.8l.1 1.15" fill-rule="evenodd" transform="translate(27.05 64.6)"/></g><g id="b"><path d="M8.7-1.95q0 2.65-2.2 4.6-2.2 1.9-5.3 1.9-3.05 0-5.3-1.9Q-6.3.7-6.3-1.95q0-2.7 2.2-4.65 2.25-1.9 5.3-1.9 3.1 0 5.3 1.9 2.2 1.95 2.2 4.65" fill="url(#c)" fill-rule="evenodd" transform="translate(6.8 10.9)"/><path d="M8.7-1.95q0 2.65-2.2 4.6-2.2 1.9-5.3 1.9-3.05 0-5.3-1.9Q-6.3.7-6.3-1.95q0-2.7 2.2-4.65 2.25-1.9 5.3-1.9 3.1 0 5.3 1.9 2.2 1.95 2.2 4.65z" fill="none" stroke="#000" stroke-linecap="round" stroke-linejoin="round" transform="translate(6.8 10.9)"/><path d="M2.35-7.5q.1.35-.65.7-.7.4-1.8.65l-1.95.2q-.85 0-.95-.35-.1-.3.65-.75l1.85-.6 1.9-.25q.85.1.95.4" fill-opacity=".2" fill-rule="evenodd" transform="translate(6.8 10.9)"/><path d="M-4-10.4l1.95.15 1.35 3.2L-4-10.4" fill-rule="evenodd" transform="translate(6.8 10.9)"/><path d="M-4-10.4l1.95.15 1.35 3.2z" fill="none" stroke="#000" stroke-linecap="round" stroke-linejoin="round" transform="translate(6.8 10.9)"/><path d="M-1 1.9q.2.4.05.55l-.8-.05-1-.65-.8-.85q-.15-.5.1-.6l.7.05q.5.2 1.05.7l.7.85m-3.4-3.1l-.2-.7.2-.75.5-.3q.3 0 .5.3l.25.75q0 .4-.25.7-.2.3-.5.3l-.5-.3" fill="#fff" fill-rule="evenodd" transform="translate(6.8 10.9)"/></g><linearGradient gradientTransform="matrix(-.0007 -.008 .0091 -.0006 1.2 -1.35)" gradientUnits="userSpaceOnUse" id="c" spreadMethod="pad" x1="-819.2" x2="819.2"><stop offset="0" stop-color="#c7f466"/><stop offset=".365" stop-color="#e7ac43"/><stop offset=".576" stop-color="#f84f32"/><stop offset="1" stop-color="#ff3131"/></linearGradient><path d="M.7-.3l1.85 2.2H1.5L.05.7-1.4 1.9h-1.05l1.9-2.2H.7" fill-rule="evenodd" transform="translate(2.45 .3)" id="a"/></defs><g transform="matrix(2 0 0 2 82.341 148.2)"><use height="63.5" transform="translate(-27.05 -64.6)" width="52.6" xlink:href="#d"/><use height="2.2" transform="translate(10.35 -53.3)" width="5" xlink:href="#e"/><use height="2.2" transform="translate(-5.9 -53.3)" width="5" xlink:href="#e"/><use height="15.95" transform="translate(-6 -72.95)" width="16" xlink:href="#f"/></g></svg>

<?xml version="1.0" encoding="UTF-8" standalone="no"?>
<svg
   xmlns:dc="http://purl.org/dc/elements/1.1/"
   xmlns:cc="http://creativecommons.org/ns#"
   xmlns:rdf="http://www.w3.org/1999/02/22-rdf-syntax-ns#"
   xmlns:svg="http://www.w3.org/2000/svg"
   xmlns="http://www.w3.org/2000/svg"
   xmlns:xlink="http://www.w3.org/1999/xlink"
   xmlns:sodipodi="http://sodipodi.sourceforge.net/DTD/sodipodi-0.dtd"
   xmlns:inkscape="http://www.inkscape.org/namespaces/inkscape"
   height="182"
   width="160"
   version="1.1"
   id="svg23"
   sodipodi:docname="front-walking-2.svg"
   inkscape:version="1.0.1 (3bc2e813f5, 2020-09-07, custom)">
  <metadata
     id="metadata27">
    <rdf:RDF>
      <cc:Work
         rdf:about="">
        <dc:format>image/svg+xml</dc:format>
        <dc:type
           rdf:resource="http://purl.org/dc/dcmitype/StillImage" />
      </cc:Work>
    </rdf:RDF>
  </metadata>
  <sodipodi:namedview
     pagecolor="#ffffff"
     bordercolor="#666666"
     borderopacity="1"
     objecttolerance="10"
     gridtolerance="10"
     guidetolerance="10"
     inkscape:pageopacity="0"
     inkscape:pageshadow="2"
     inkscape:window-width="1920"
     inkscape:window-height="1060"
     id="namedview25"
     showgrid="false"
     inkscape:zoom="3.3818336"
     inkscape:cx="51.719065"
     inkscape:cy="103.60259"
     inkscape:window-x="1920"
     inkscape:window-y="20"
     inkscape:window-maximized="0"
     inkscape:current-layer="svg23" />
  <defs
     id="defs13">
    <g
       id="shape0"
       transform="matrix(1.0, 0.0, 0.0, 1.0, 27.05, 64.6)">
      <path
         d="M-15.5 -41.55 Q-18.15 -44.65 -18.0 -48.65 L-18.0 -49.4 Q-17.75 -54.3 -12.65 -58.45 -7.15 -63.5 0.5 -64.0 8.1 -63.5 13.55 -58.45 18.6 -54.3 19.0 -49.4 L19.0 -48.65 Q19.0 -44.65 16.4 -41.55 L16.5 -41.55 16.45 -41.55 15.35 -40.25 15.35 -40.1 14.35 -39.2 20.9 -36.85 20.95 -36.95 21.75 -36.85 22.3 -36.85 22.7 -36.85 23.1 -36.55 23.65 -36.0 23.9 -35.65 24.15 -34.15 23.95 -33.7 Q23.6 -32.15 22.55 -32.05 L20.45 -31.95 19.3 -32.85 19.3 -32.9 19.25 -32.9 19.3 -33.05 14.35 -34.85 14.35 -34.9 13.05 -35.4 13.1 -34.85 12.8 -33.95 13.15 -33.85 13.15 -33.8 13.0 -33.85 12.75 -25.0 12.7 -25.0 12.65 -23.5 12.7 -23.5 12.7 -23.4 12.65 -23.0 12.6 -23.0 12.25 -18.8 11.2 -14.7 9.55 -10.7 9.55 -10.65 8.4 -10.65 8.4 -5.45 Q8.35 -4.1 7.6 -3.2 6.95 -2.45 5.9 -2.45 4.9 -2.45 4.2 -3.2 3.4 -4.1 3.4 -5.45 L3.4 -10.65 2.25 -10.65 2.1 -10.65 2.1 -11.85 1.8 -11.85 1.8 -12.0 1.35 -12.75 2.6 -13.05 3.25 -13.55 Q4.15 -14.45 4.15 -16.3 4.15 -18.2 3.25 -19.1 2.45 -19.9 1.2 -19.9 L-5.4 -19.9 -5.4 -18.35 1.15 -18.35 Q1.85 -18.35 2.3 -17.95 2.85 -17.4 2.85 -16.3 2.85 -15.25 2.3 -14.7 1.85 -14.25 1.15 -14.25 L-5.4 -14.25 -5.4 -12.85 -10.15 -12.85 -12.3 -13.5 Q-13.85 -15.25 -14.15 -17.25 L-14.25 -18.45 -14.25 -19.0 -14.2 -19.4 -13.65 -21.25 -13.55 -21.25 -13.55 -21.8 -13.4 -21.95 -13.4 -22.0 -13.4 -23.3 -13.25 -25.7 -13.25 -25.75 -12.75 -33.5 -12.8 -33.5 -14.25 -33.95 -14.7 -35.25 -20.8 -33.05 -20.75 -32.9 -20.8 -32.9 -20.8 -32.85 -21.9 -31.95 -24.0 -32.05 Q-25.1 -32.15 -25.45 -33.7 L-25.6 -34.15 -25.35 -35.65 -25.15 -36.0 -24.55 -36.55 -24.2 -36.85 -23.75 -36.85 -23.2 -36.85 -22.45 -36.95 -22.4 -36.85 -13.35 -40.1 -13.6 -40.9 -14.95 -40.55 -15.7 -41.55 -15.5 -41.55 M-13.75 -21.9 L-13.8 -22.0 -13.75 -21.9 M-10.1 -28.5 L-10.1 -28.45 -10.05 -28.45 -10.1 -28.5"
         fill="#ffffff"
         fill-rule="evenodd"
         stroke="none"
         id="path862" />
      <path
         d="M15.35 -40.1 L18.5 -39.15 18.5 -39.2 21.05 -38.25 21.05 -38.3 21.35 -38.1 21.35 -38.0 21.45 -38.0 22.7 -38.1 Q22.9 -37.95 23.0 -38.1 24.55 -37.75 25.0 -36.6 L25.15 -36.35 25.15 -36.1 25.3 -35.8 25.5 -35.1 Q25.7 -34.2 25.35 -33.5 L25.25 -33.3 Q24.9 -31.4 23.25 -30.9 23.3 -30.45 23.05 -30.8 L20.35 -30.6 Q19.7 -30.95 18.7 -31.85 L14.55 -33.35 14.55 -33.25 13.15 -33.8 13.15 -33.85 12.8 -33.95 13.1 -34.85 13.05 -35.4 14.35 -34.9 14.35 -34.85 19.3 -33.05 19.25 -32.9 19.3 -32.9 19.3 -32.85 20.45 -31.95 22.55 -32.05 Q23.6 -32.15 23.95 -33.7 L24.15 -34.15 23.9 -35.65 23.65 -36.0 23.1 -36.55 22.7 -36.85 22.3 -36.85 21.75 -36.85 20.95 -36.95 20.9 -36.85 14.35 -39.2 15.35 -40.1 M9.55 -10.65 L9.55 -5.45 Q9.55 -3.5 8.55 -2.35 7.45 -1.1 5.9 -1.1 4.4 -1.1 3.25 -2.35 2.2 -3.5 2.25 -5.45 L2.25 -10.65 3.4 -10.65 3.4 -5.45 Q3.4 -4.1 4.2 -3.2 4.9 -2.45 5.9 -2.45 6.95 -2.45 7.6 -3.2 8.35 -4.1 8.4 -5.45 L8.4 -10.65 9.55 -10.65 M1.35 -12.75 L1.3 -12.75 -5.4 -12.75 -5.4 -12.85 -5.4 -14.25 1.15 -14.25 Q1.85 -14.25 2.3 -14.7 2.85 -15.25 2.85 -16.3 2.85 -17.4 2.3 -17.95 1.85 -18.35 1.15 -18.35 L-5.4 -18.35 -5.4 -19.9 1.2 -19.9 Q2.45 -19.9 3.25 -19.1 4.15 -18.2 4.15 -16.3 4.15 -14.45 3.25 -13.55 L2.6 -13.05 1.35 -12.75 M-14.25 -33.95 L-20.2 -31.85 -21.8 -30.6 Q-23.4 -30.15 -24.5 -30.8 -24.8 -30.45 -24.7 -30.9 -26.4 -31.4 -26.7 -33.3 L-26.85 -33.5 Q-27.2 -34.2 -27.0 -35.1 L-26.75 -35.8 -26.6 -36.1 -26.6 -36.35 -26.5 -36.6 Q-26.05 -37.75 -24.45 -38.1 -24.4 -37.95 -24.15 -38.1 L-22.95 -38.0 -22.8 -38.0 -22.85 -38.1 -22.55 -38.3 -22.5 -38.25 -19.95 -39.2 -19.95 -39.15 -18.15 -39.8 -14.95 -40.55 -13.6 -40.9 -13.35 -40.1 -22.4 -36.85 -22.45 -36.95 -23.2 -36.85 -23.75 -36.85 -24.2 -36.85 -24.55 -36.55 -25.15 -36.0 -25.35 -35.65 -25.6 -34.15 -25.45 -33.7 Q-25.1 -32.15 -24.0 -32.05 L-21.9 -31.95 -20.8 -32.85 -20.8 -32.9 -20.75 -32.9 -20.8 -33.05 -14.7 -35.25 -14.25 -33.95"
         fill="#000000"
         fill-rule="evenodd"
         stroke="none"
         id="path864" />
      <path
         d="M-15.5 -41.55 Q-18.15 -44.65 -18.0 -48.65 L-18.0 -49.4 Q-17.75 -54.3 -12.65 -58.45 -7.15 -63.5 0.5 -64.0 8.1 -63.5 13.55 -58.45 18.6 -54.3 19.0 -49.4 L19.0 -48.65 Q19.0 -44.65 16.4 -41.55"
         fill="none"
         stroke="#000000"
         stroke-linecap="round"
         stroke-linejoin="round"
         stroke-width="1.2000000000000002"
         id="path866" />
      <path
         d="M5.4 -44.05 Q5.55 -43.6 5.85 -43.3 L6.55 -43.05 7.5 -43.65 Q7.9 -44.3 7.9 -45.3 7.9 -46.65 7.0 -48.55 L8.05 -48.55 Q8.95 -46.95 8.95 -45.4 8.95 -43.85 8.3 -43.0 7.7 -42.2 6.7 -42.2 5.35 -42.2 4.8 -43.6 4.2 -42.2 2.9 -42.2 1.85 -42.2 1.25 -43.05 0.6 -43.9 0.6 -45.4 0.6 -46.95 1.55 -48.55 L2.55 -48.55 Q1.7 -46.65 1.7 -45.3 1.7 -44.3 2.05 -43.65 2.45 -43.05 3.0 -43.05 3.4 -43.05 3.7 -43.35 L4.15 -44.05 4.25 -45.2 4.25 -47.0 5.3 -47.0 5.3 -45.2 5.4 -44.05"
         fill="#000000"
         fill-rule="evenodd"
         stroke="none"
         id="path868" />
    </g>
    <g
       id="sprite0"
       transform="matrix(1.0, 0.0, 0.0, 1.0, 2.45, 0.3)">
      <use
         height="2.2"
         transform="matrix(1.0, 0.0, 0.0, 1.0, -2.45, -0.3)"
         width="5.0"
         xlink:href="#shape1"
         id="use871" />
    </g>
    <g
       id="shape1"
       transform="matrix(1.0, 0.0, 0.0, 1.0, 2.45, 0.3)">
      <path
         d="M0.7 -0.3 L2.55 1.9 1.5 1.9 0.05 0.7 -1.4 1.9 -2.45 1.9 -0.55 -0.3 0.7 -0.3"
         fill="#000000"
         fill-rule="evenodd"
         stroke="none"
         id="path874" />
    </g>
    <g
       id="sprite1"
       transform="matrix(1.0, 0.0, 0.0, 1.0, 6.8, 10.9)">
      <use
         height="15.95"
         transform="matrix(1.0, 0.0, 0.0, 1.0, -6.8, -10.9)"
         width="16.0"
         xlink:href="#shape2"
         id="use877" />
    </g>
    <g
       id="shape2"
       transform="matrix(1.0, 0.0, 0.0, 1.0, 6.8, 10.9)">
      <path
         d="M8.7 -1.95 Q8.7 0.7 6.5 2.65 4.3 4.55 1.2 4.55 -1.85 4.55 -4.1 2.65 -6.3 0.7 -6.3 -1.95 -6.3 -4.65 -4.1 -6.6 -1.85 -8.5 1.2 -8.5 4.3 -8.5 6.5 -6.6 8.7 -4.65 8.7 -1.95"
         fill="url(#gradient0)"
         fill-rule="evenodd"
         stroke="none"
         id="path880" />
      <path
         d="M8.7 -1.95 Q8.7 0.7 6.5 2.65 4.3 4.55 1.2 4.55 -1.85 4.55 -4.1 2.65 -6.3 0.7 -6.3 -1.95 -6.3 -4.65 -4.1 -6.6 -1.85 -8.5 1.2 -8.5 4.3 -8.5 6.5 -6.6 8.7 -4.65 8.7 -1.95 Z"
         fill="none"
         stroke="#000000"
         stroke-linecap="round"
         stroke-linejoin="round"
         stroke-width="1.0"
         id="path882" />
      <path
         d="M2.35 -7.5 Q2.45 -7.15 1.7 -6.8 1.0 -6.4 -0.1 -6.15 L-2.05 -5.95 Q-2.9 -5.95 -3.0 -6.3 -3.1 -6.6 -2.35 -7.05 L-0.5 -7.65 1.4 -7.9 Q2.25 -7.8 2.35 -7.5"
         fill="#000000"
         fill-opacity="0.2"
         fill-rule="evenodd"
         stroke="none"
         id="path884" />
      <path
         d="M-4.0 -10.4 L-2.05 -10.25 -0.7 -7.05 -4.0 -10.4"
         fill="#000000"
         fill-rule="evenodd"
         stroke="none"
         id="path886" />
      <path
         d="M-4.0 -10.4 L-2.05 -10.25 -0.7 -7.05 -4.0 -10.4 Z"
         fill="none"
         stroke="#000000"
         stroke-linecap="round"
         stroke-linejoin="round"
         stroke-width="1.0"
         id="path888" />
      <path
         d="M-1.0 1.9 Q-0.8 2.3 -0.95 2.45 L-1.75 2.4 -2.75 1.75 -3.55 0.9 Q-3.7 0.4 -3.45 0.3 L-2.75 0.35 Q-2.25 0.55 -1.7 1.05 L-1.0 1.9"
         fill="#ffffff"
         fill-rule="evenodd"
         stroke="none"
         id="path890" />
      <path
         d="M-4.4 -1.2 L-4.6 -1.9 -4.4 -2.65 -3.9 -2.95 Q-3.6 -2.95 -3.4 -2.65 L-3.15 -1.9 Q-3.15 -1.5 -3.4 -1.2 -3.6 -0.9 -3.9 -0.9 L-4.4 -1.2"
         fill="#ffffff"
         fill-rule="evenodd"
         stroke="none"
         id="path892" />
    </g>
    <linearGradient
       gradientTransform="matrix(-7.0E-4, -0.008, 0.0091, -6.0E-4, 1.2, -1.35)"
       gradientUnits="userSpaceOnUse"
       id="gradient0"
       spreadMethod="pad"
       x1="-819.2"
       x2="819.2">
      <stop
         offset="0.0"
         stop-color="#c7f466"
         id="stop895" />
      <stop
         offset="0.36470588235294116"
         stop-color="#e7ac43"
         id="stop897" />
      <stop
         offset="0.5764705882352941"
         stop-color="#f84f32"
         id="stop899" />
      <stop
         offset="1.0"
         stop-color="#ff3131"
         id="stop901" />
    </linearGradient>
  </defs>
  <g
     transform="matrix(2,0,0,2,82.341,144.2)"
     id="g860">
    <use
       height="63.5"
       transform="translate(-27.05,-64.6)"
       width="52.599998"
       xlink:href="#shape0"
       id="use852"
       x="0"
       y="0" />
    <use
       height="2.2"
       transform="translate(10.35,-53.3)"
       width="5"
       xlink:href="#sprite0"
       id="use854"
       x="0"
       y="0" />
    <use
       height="2.2"
       transform="translate(-5.9,-53.3)"
       width="5"
       xlink:href="#sprite0"
       id="use856"
       x="0"
       y="0" />
    <use
       height="15.95"
       transform="translate(-6,-72.95)"
       width="16"
       xlink:href="#sprite1"
       id="use858"
       x="0"
       y="0" />
  </g>
</svg>
